outputs/icons/maps/train_round.svg

<svg xmlns="http://www.w3.org/2000/svg" width="1200" height="1200" fill="none"><g clip-path="url(#a)"><path fill="#000" d="M600 100c-200 0-400 25-400 200v475c0 96.5 78.5 175 175 175l-57.5 57.5c-15.5 15.5-4.5 42.5 18 42.5H390c6.5 0 13-2.5 17.5-7.5L500 950h200l92.5 92.5c4.5 4.5 11 7.5 17.5 7.5h54.5c22.5 0 33.5-27 17.5-42.5L825 950c96.5 0 175-78.5 175-175V300c0-175-200-200-400-200M375 850c-41.5 0-75-33.5-75-75s33.5-75 75-75 75 33.5 75 75-33.5 75-75 75m175-350H300V300h250zm275 350c-41.5 0-75-33.5-75-75s33.5-75 75-75 75 33.5 75 75-33.5 75-75 75m75-350H650V300h250z"/></g><defs><clipPath id="a"><path fill="#fff" d="M0 0h1200v1200H0z"/></clipPath></defs></svg>

<svg width="1200" height="1200" viewBox="0 0 1200 1200" fill="none" xmlns="http://www.w3.org/2000/svg"><g clip-path="url(#clip0_238_1708)"><path d="M600 100C400 100 200 125 200 300V775C200 871.5 278.5 950 375 950L317.5 1007.5C302 1023 313 1050 335.5 1050H390C396.5 1050 403 1047.5 407.5 1042.5L500 950H700L792.5 1042.5C797 1047 803.5 1050 810 1050H864.5C887 1050 898 1023 882 1007.5L825 950C921.5 950 1000 871.5 1000 775V300C1000 125 800 100 600 100ZM375 850C333.5 850 300 816.5 300 775C300 733.5 333.5 700 375 700C416.5 700 450 733.5 450 775C450 816.5 416.5 850 375 850ZM550 500H300V300H550V500ZM825 850C783.5 850 750 816.5 750 775C750 733.5 783.5 700 825 700C866.5 700 900 733.5 900 775C900 816.5 866.5 850 825 850ZM900 500H650V300H900V500Z" fill="black"/></g><defs><clipPath id="clip0_238_1708"><path width="24" fill="white" d="M0 0H1200V1200H0V0z"/></clipPath></defs></svg>
